X: 23445
T: Let It Jig, Let It Jig, Let It
R: jig
M: 6/8
K: Gmajor
D|:DGB d2c|(3BcB A G2D|DFG A2^G|A2G A3|
Acd (3efe d|c2B A3|Afe d2c|(3BcB A G3:|
K: Dmaj
|:DFG ABA|F2d A3|AFA FGF|E2F FEF|
DFG ABA|F2d A3|Add dcB|cde d3:|

